X:285
T: South Road to Aran
T: B\'othar \'o thuaidh go dt\'i \'Arainn
S: B.Breathnach: "Ceol Rince na hEireann" II/65
Z: B.Black
L: 1/8
M: 6/8
R: jig
K: D
e|dBB BAF|A2A A2A|BcB BAB|g3 f2e|
dBB BAG|FAA A2A|Bcd eAA|1 d3 f2 :|2 d3 d2||
A|d2d d2f|aba a2f|dc/d/d d2f|a3 a2a|
baa a2f|gag f2e|d2d def|1 g3 f2e :|2 g3 f2||

